icons/chevron-break-top.svg

<svg width="24" height="24" viewBox="0 0 24 24" fill="none" xmlns="http://www.w3.org/2000/svg">
<path fill-rule="evenodd" clip-rule="evenodd" d="M18.1303 16.8803C17.8374 17.1732 17.3625 17.1732 17.0696 16.8803L12.1697 11.9804L12.7 11.45L12.1697 11.9804C12.1058 11.9165 12.0448 11.9 12 11.9C11.9552 11.9 11.8942 11.9165 11.8303 11.9804L11.3 11.45L11.8303 11.9804L6.93032 16.8803C6.63743 17.1732 6.16255 17.1732 5.86966 16.8803C5.57677 16.5874 5.57677 16.1125 5.86966 15.8197L10.7697 10.9197C11.4626 10.2268 12.5374 10.2268 13.2303 10.9197L18.1303 15.8197C18.4232 16.1125 18.4232 16.5874 18.1303 16.8803Z" fill="black"/>
<path fill-rule="evenodd" clip-rule="evenodd" d="M18.75 7.65002C18.75 8.06424 18.4142 8.40002 18 8.40002L6 8.40002C5.58579 8.40002 5.25 8.06424 5.25 7.65002C5.25 7.23581 5.58579 6.90002 6 6.90002L18 6.90002C18.4142 6.90002 18.75 7.23581 18.75 7.65002Z" fill="black"/>
</svg>

<svg xmlns="http://www.w3.org/2000/svg" fill="none" viewBox="0 0 24 24">
  <path fill="#000" fill-rule="evenodd" d="M18.13 16.88a.75.75 0 0 1-1.06 0l-4.9-4.9.53-.53-.53.53a.24.24 0 0 0-.17-.08.24.24 0 0 0-.17.08l-.53-.53.53.53-4.9 4.9a.75.75 0 0 1-1.06-1.06l4.9-4.9a1.716 1.716 0 0 1 2.46 0l4.9 4.9a.75.75 0 0 1 0 1.06Zm.62-9.23a.75.75 0 0 1-.75.75H6a.75.75 0 1 1 0-1.5h12a.75.75 0 0 1 .75.75Z" clip-rule="evenodd"/>
</svg>
